X:1
T:Monterey, 76.76 D
T:Monterey, 76.76 D
T:Hart Pease Danks, 1881
T:Public Domain Courtesy of the Cyber Hymnal™
C:Hart Pease Danks, 1881
Z:Public Domain
Z:Courtesy of the Cyber Hymnal™
%%score ( 1 2 ) ( 3 4 )
L:1/8
Q:1/4=110
M:4/4
K:Eb
V:1 treble 
V:2 treble 
V:3 bass 
V:4 bass 
V:1
 [GB]2 | [EG]2 [EB]2 E2 [EG]2 | [DF]4 E2 E2 | [Ec]2 [EB]2 [DA]2 [EG]2 | [DF]6 [DF]2 | %5
 [EG]2 [DF]2 [EG]2 [FA]2 | [GB]4 [GB]2 [Gc]2 | [Fd]2 [Fe]2 [Ec]3 [DB] | [DB]6 [FB]2 | %9
 [Ee]2 [Ge]2 [Ad]2 [Ac]2 | [GB]4 [EG]2 E2 | [Ec]2 [EB]2 A2 [EG]2 | [DF]6 [DF]2 | %13
 E2 [DF]2 [EG]2 [GB]2 | [Ac]2 [Ae]4 [Ac]2 | [GB]2 [EG]2 [DF]3 E | E6 |] %17
V:2
 x2 | x4 E2 x2 | x4 E2 E2 | x8 | x8 | x8 | x8 | x8 | x8 | x8 | x6 E2 | x4 (CD) x2 | x8 | E2 x6 | %14
 x8 | x7 E | E6 |] %17
V:3
 [E,B,]2 | [E,B,]2 [E,G,]2 [E,G,]2 [E,B,]2 | [B,,A,]4 [E,G,]2 [G,B,]2 | %3
 A,2 [G,B,]2 [F,B,]2 [E,B,]2 | [B,,B,]6 [B,,B,]2 | [E,B,]2 [B,,B,]2 [E,B,]2 [E,B,]2 | %6
 [E,B,]4 [E,B,]2 [=E,B,]2 | [F,B,]2 [F,C]2 [F,=A,]3 [B,,B,] | [B,,B,]6 [A,B,]2 | %9
 [G,B,]2 [E,B,]2 (A,B,) (CD) | [E,E]4 [E,B,]2 [G,B,]2 | A,2 [G,B,]2 [F,B,]2 [E,B,]2 | %12
 [B,,B,]6 [B,,B,]2 | (G,=A,) [B,,B,]2 [E,B,]2 [E,E]2 | [A,E]2 [A,C]4 [A,E]2 | %15
 [B,E]2 B,2 [B,,A,]3 [E,G,] | [E,G,]6 |] %17
V:4
 x2 | x8 | x8 | A,2 x6 | x8 | x8 | x8 | x8 | x8 | x4 E,2 E,2 | x8 | A,2 x6 | x8 | C,2 x6 | x8 | %15
 x2 B,2 x4 | x6 |] %17

